X:1
T:Oh, Earth! Throughout Thy Borders
T:Oh, Earth! Throughout Thy Borders
T:Mrs. H. A. Farnsworth, 1916
T:George Newell Lovejoy, 1902
T:Public Domain Courtesy of the Cyber Hymnal™
C:Mrs. H. A. Farnsworth, 1916
Z:Public Domain
Z:Courtesy of the Cyber Hymnal™
%%score ( 1 2 ) ( 3 4 )
L:1/8
Q:1/4=105
M:6/8
K:Ab
V:1 treble 
V:2 treble 
V:3 bass 
V:4 bass 
V:1
 [CE] | [CE]2 [Ec] [=DB]2 [_Dc] | [CA]3 [CE]2 [CE] | [DF]2 [Fd] [FA]2 [_FB] | [Ec]3- [Ec]2 [Ec] | %5
w: 1.~Oh,|Earth! through- out thy|bor- ders, Re-|don thy fair- est|dress; * And|
w: 2.~Let|peals of ju- bi-|la- tion Ring|out in all the|lands; * With|
 [Ge]2 [Ad] [Ac]2 [EB] | [EA]3 [Ac]2 [^Fc] | (cB)[EG] (BA)[B,F] | [B,E]3- [B,E]2 [DE] | %9
w: ev- ery- where, oh,|Na- ture! Throb|with * new hap- * pi-|ness; * Once|
w: hearts of deep e-|la- tion Let|sea * with sea * clasp|hands; * Let|
 [DE]2 [Ed] [Gc]2 [EB] | [EA]3 [CE]2 [CE] | [EF]2 [Fe] [=Ad]2 [Fc] | [FB]3- [FB]2 || %13
w: more to new cre-|a- tion A-|wake, and death gain-|say, *|
w: one su- preme Te|De- um Roll|round the world's high-|way, *|
"^Refrain" [=Ac] | [Bd]2 [df] [ce]2 [Bd] | [Ac]2 [_Ge] [FA]2 [_Fd] | %16
w: |||
w: |||
 ([Ec][=B,=D])[CE] [E_B]2 [Gc] | [EA]3- [EA]2 |] %18
w: ||
w: ||
V:2
 x | x6 | x6 | x6 | x6 | x6 | x6 | G2 =D2 x2 | x6 | x6 | x6 | x6 | x5 || x | x6 | x6 | x6 | x5 |] %18
V:3
 [A,,A,] | [A,,A,]2 [A,,A,] [B,,A,]2 [E,G,] | (z G,F,) [A,,E,]2 [A,,A,] | %3
w: ~|~ ~ ~ ~|* * ~ ~|
 [D,A,]2 [D,A,] [D,D]2 [D,D] | [A,C]3- [A,C]2 [A,C] | [E,B,]2 [E,F] [E,E]2 [E,D] | %6
w: * ~ ~ ~|~ * ~|~ ~ ~ ~|
 [A,C]3 [A,E]2 [=A,E] | [B,E]2 [B,,B,] [B,,F,]2 [B,,A,] | [E,G,]3- [E,G,]2 [E,G,] | %9
w: ~ ~ ~|~ ~ ~ ~|~ * ~|
 [E,G,]2 [E,G,] [E,E]2 [E,D] | (z =D,F,) [A,,E,]2 [A,,A,] | [F,=A,]2 [F,A,] [F,F]2 [F,E] | %12
w: ~ ~ ~ ~|* * ~ ~|* ~ ~ ~|
 (z [B,,B,D]2) x2 || [F,E] | [B,F]2 [D,D] [E,E]2 [G,E] | [A,E]2 [A,C] [D,D]2 [D,A,] | %16
w: ||* ~ ~ ~|~ ~ For death|
 [E,A,]2 [E,A,] [E,D]2 [E,E] | [A,C]3- [A,C]2 |] %18
w: is swal- lowed up|of *|
V:4
 x | x6 | [A,,A,]3 x3 | x6 | x6 | x6 | x6 | x6 | x6 | x6 | [A,C]3 x3 | x6 | [B,D]3- F,D, || x | %14
 x6 | x6 | x6 | x5 |] %18

